X: 297
T: Hampstead Assembly
%R: reel
B: John Walsh "Caledonian Country Dances"
S: 2: CCD2  http://petrucci.mus.auth.gr/imglnks/usimg/5/50/IMSLP98359-PMLP202128-walsh_caledonian_country_dance_vol2.1.pdf p.99 #1220
S: 4: ACMV  http://archive.org/details/acompositemusicv01rugg p.4:99 #1220
Z: 2013 John Chambers <jc:trillian.mit.edu>
N: "122" plus a squiggle that might be a zero are pencilled in at top center.
M: 2/4
L: 1/16
K: G
% - - - - - - - - - - - - - - - - - - - - - - - - -
V: 1
Bc |\
d2g2d2c2 | {c}TB3AB2c2 | d2G2 BAGF | GFGA G2Bc |\
d2g2d2c2 | {c}TB3cd2g2 | {g}f2ed fed^c | d4 D2 :|
|: fg |\
a2d2b2d2 | a2d2g2d2 | c2B2A2G2 | AGFE D2Bc |\
dcBc dcBc | dcBc d2g2 | cBAG BAGF | G4 G,2 :|
% - - - - - - - - - - - - - - - - - - - - - - - - -
V: 2 clef=bass middle=d
G2 |\
g4f2d2 | g4G4 | B4c2d2 | g4G4 |\
g4f2d2 | g4G4 | a4A4 | d4D2 :|
|: d2 |\
f2d2g2d2 | f2d2g4 | e2d2c2e2 | d4D2G2 |\
g4G4 | g4B2g2 | c4d4 | g4G2 :|
% - - - - - - - - - - - - - - - - - - - - - - - - -
%%begintext align
%% The First Cu. foot to the Second Wo. and Hands round three .|
%% The same to the Second Man :|
%% Cross over two Cu. .|.
%% Lead up to the top foot it and cast off :|:.
%%endtext

%%sep 1 1 500
%%sep 1 1 500
